X:21
%%titlespace -10
%%musicspace -10
T:Dwr yr Avon
K:C
M:6/8
L:1/8
E | "Am" A2 B c2 e | "Dm"d2 c "Em"B2 B | "F"c2 B A2 c | "Em"B2 G E2 E | 
"Am"A2 B c2 e | "Dm" d2 c "Em" B2 B | "F" cBA "Em" BAG | "Am" A3- A2:]
|: B | "C" c2 d e2 c | "G"d2 c B2 B | "Am"c2 B A2 A | "Em" B2 G E2 G | 
"C"c2 d e2 c | "G"d2 c B2 B | "F" cBA "Em" BGE | "Am" A3- A2 :]

